!!!SOCIAL_FUNCTION:	miscellaneous songs
!!!PDT:	1943
!!!OTL: No_94_Song_of_a_Traveler.krn
!!!REG: British Columbia
**kern
*staff1
=1-
*clefF4
*k[b-e-]
*M3/4
4f\
16g\LK
8.g\J
16f\LK
8.e-\J
=2
2f\
16c\LK
8B-\
16c\Jk
=3||
*M2/4
16c\LK
8.B-\J
16G\LK
8.F\J
=4
16B-\LK
[8.G\J
4G\]
=5
8B-\L
8G\J
4F\
=6
8G\L
8F\J
8F\L
8F\J
=7||
*M3/4
8D\
16r
16F\
4F\
8F\
8r
=8||
*M2/4
4c\
8.B-\L
16c\Jk
=9
16c\LK
8.B-\J
16G\LK
8.F\J
=10
16B-\LK
[8.G\J
4G\]
=11
8B-\L
8G\J
4F\
=12
8G\L
8F\J
8F\L
8F\J
=13||
*M3/4
8D\
16r
16F\
4F\
8F\
8r
==
*-
